X: 1
T:"You Bet" -- Reel
M:2/4
L:1/16
C:JAS. HAND.
R:reel
B:Ryan's Mammoth Collection
N:141
Z:Contributed by Ray Davies,  ray:davies99.freeserve.co.uk
K:G
uD2|
kG3B AGED | GBdg ke3f | {a}gfge dBAc | BGAF GFED |
kG3B AGED | GBdg ke3f | {a}gfge dBge | dBAB G2  ::
v.g2(dg) edgd | eaab agef | .g2(dg) edgd | egfa .g2ga |
bbbg aaaf | {a}ggge .d2(ef) | {a}gfge dBge | dBAF G2 z2:|
